src/assets/img/dist/icons/Original.svg

<svg width="179" height="45" viewBox="0 0 179 45" fill="none" xmlns="http://www.w3.org/2000/svg">
<rect width="179" height="45" rx="18" fill="#228CDB"/>
<path d="M37.3273 31.45C34.5107 31.45 32.194 30.5917 30.3773 28.875C28.5773 27.1417 27.6773 24.9333 27.6773 22.25C27.6773 19.5667 28.5773 17.3667 30.3773 15.65C32.194 13.9167 34.5107 13.05 37.3273 13.05C40.1273 13.05 42.4273 13.9167 44.2273 15.65C46.0273 17.3667 46.9273 19.5667 46.9273 22.25C46.9273 24.9333 46.0273 27.1417 44.2273 28.875C42.4273 30.5917 40.1273 31.45 37.3273 31.45ZM34.0023 25.625C34.8857 26.5083 35.994 26.95 37.3273 26.95C38.6607 26.95 39.7523 26.5083 40.6023 25.625C41.469 24.7417 41.9023 23.6167 41.9023 22.25C41.9023 20.8833 41.469 19.7583 40.6023 18.875C39.7523 17.9917 38.6607 17.55 37.3273 17.55C35.994 17.55 34.8857 17.9917 34.0023 18.875C33.1357 19.7583 32.7023 20.8833 32.7023 22.25C32.7023 23.6167 33.1357 24.7417 34.0023 25.625ZM58.8031 31L55.9531 25.65H54.2281V31H49.4031V13.5H56.9781C58.2281 13.5 59.3448 13.7583 60.3281 14.275C61.3115 14.7917 62.0781 15.525 62.6281 16.475C63.1948 17.425 63.4781 18.5 63.4781 19.7C63.4781 20.4 63.3698 21.0667 63.1531 21.7C62.9365 22.3167 62.6198 22.875 62.2031 23.375C61.7865 23.875 61.2865 24.2917 60.7031 24.625L64.1781 31H58.8031ZM54.2281 17.775V21.575H56.4281C57.0781 21.575 57.5948 21.4 57.9781 21.05C58.3615 20.7 58.5531 20.2417 58.5531 19.675C58.5531 19.3083 58.4698 18.9833 58.3031 18.7C58.1365 18.4167 57.8865 18.1917 57.5531 18.025C57.2365 17.8583 56.8615 17.775 56.4281 17.775H54.2281ZM66.2977 31V13.5H71.1727V31H66.2977ZM82.599 21.65H92.199C92.199 23.5333 91.8157 25.225 91.049 26.725C90.2824 28.2083 89.199 29.3667 87.799 30.2C86.399 31.0333 84.799 31.45 82.999 31.45C80.299 31.45 78.0657 30.5833 76.299 28.85C74.549 27.1167 73.674 24.925 73.674 22.275C73.674 19.6083 74.5407 17.4083 76.274 15.675C78.024 13.925 80.249 13.05 82.949 13.05C85.2324 13.05 87.224 13.7 88.924 15C90.624 16.3 91.6574 17.9667 92.024 20H86.974C86.6574 19.2667 86.1324 18.6833 85.399 18.25C84.6824 17.8 83.8824 17.575 82.999 17.575C81.6824 17.575 80.6157 18.0083 79.799 18.875C78.999 19.7417 78.599 20.875 78.599 22.275C78.599 23.175 78.774 23.9833 79.124 24.7C79.4907 25.4 80.0074 25.95 80.674 26.35C81.3407 26.7333 82.1157 26.925 82.999 26.925C83.9157 26.925 84.7324 26.725 85.449 26.325C86.1824 25.9083 86.6824 25.3583 86.949 24.675H82.599V21.65ZM94.6424 31V13.5H99.5174V31H94.6424ZM113.844 13.5H118.519V31H114.544L107.594 21.5V31H102.919V13.5H107.119L113.844 22.675V13.5ZM133.513 31L132.538 28.15H126.338L125.363 31H120.213L127.088 13.5H131.788L138.813 31H133.513ZM131.363 24.375L129.438 18.95L127.513 24.375H131.363ZM145.391 26.575H151.616V31H140.516V13.5H145.391V26.575Z" fill="white"/>
</svg>

<svg width="179" height="45" fill="none" xmlns="http://www.w3.org/2000/svg"><rect width="179" height="45" rx="18" fill="#228CDB"/><path d="M37.327 31.45c-2.816 0-5.133-.858-6.95-2.575-1.8-1.733-2.7-3.942-2.7-6.625s.9-4.883 2.7-6.6c1.817-1.733 4.134-2.6 6.95-2.6 2.8 0 5.1.867 6.9 2.6 1.8 1.717 2.7 3.917 2.7 6.6s-.9 4.892-2.7 6.625c-1.8 1.717-4.1 2.575-6.9 2.575zm-3.325-5.825c.884.883 1.992 1.325 3.325 1.325 1.334 0 2.425-.442 3.275-1.325.867-.883 1.3-2.008 1.3-3.375s-.433-2.492-1.3-3.375c-.85-.883-1.941-1.325-3.275-1.325-1.333 0-2.441.442-3.325 1.325-.866.883-1.3 2.008-1.3 3.375s.434 2.492 1.3 3.375zM58.803 31l-2.85-5.35h-1.725V31h-4.825V13.5h7.575c1.25 0 2.367.258 3.35.775a5.626 5.626 0 012.3 2.2c.567.95.85 2.025.85 3.225 0 .7-.108 1.367-.325 2a5.38 5.38 0 01-.95 1.675c-.417.5-.917.917-1.5 1.25L64.178 31h-5.375zm-4.575-13.225v3.8h2.2c.65 0 1.167-.175 1.55-.525.383-.35.575-.808.575-1.375 0-.367-.083-.692-.25-.975a1.747 1.747 0 00-.75-.675c-.316-.167-.691-.25-1.125-.25h-2.2zM66.298 31V13.5h4.875V31h-4.875zm16.301-9.35h9.6c0 1.883-.383 3.575-1.15 5.075-.767 1.483-1.85 2.642-3.25 3.475-1.4.833-3 1.25-4.8 1.25-2.7 0-4.933-.867-6.7-2.6-1.75-1.733-2.625-3.925-2.625-6.575 0-2.667.867-4.867 2.6-6.6 1.75-1.75 3.975-2.625 6.675-2.625 2.283 0 4.275.65 5.975 1.95 1.7 1.3 2.733 2.967 3.1 5h-5.05c-.317-.733-.842-1.317-1.575-1.75a4.42 4.42 0 00-2.4-.675c-1.317 0-2.383.433-3.2 1.3-.8.867-1.2 2-1.2 3.4 0 .9.175 1.708.525 2.425.367.7.883 1.25 1.55 1.65.667.383 1.442.575 2.325.575.917 0 1.733-.2 2.45-.6.733-.417 1.233-.967 1.5-1.65h-4.35V21.65zM94.642 31V13.5h4.875V31h-4.875zm19.202-17.5h4.675V31h-3.975l-6.95-9.5V31h-4.675V13.5h4.2l6.725 9.175V13.5zM133.513 31l-.975-2.85h-6.2l-.975 2.85h-5.15l6.875-17.5h4.7l7.025 17.5h-5.3zm-2.15-6.625l-1.925-5.425-1.925 5.425h3.85zm14.028 2.2h6.225V31h-11.1V13.5h4.875v13.075z" fill="#fff"/></svg>
